X: 1389
T: An Seanduine Dóite
R: jig
M: 6/8
K: Gmajor
GBe dBG|BcB B2A|GBe dBG|ABA AGE|
GBe dBA|GBd g2a|bag (3efge|dBA AGE:|
g3 gab|ded dBd|a3 aga|bge edB|
g3 gab|dBd g2a|bag (3efg e|dBA AGE:|

